packages/web/src/assets/svg/external-link.svg

<svg xmlns="http://www.w3.org/2000/svg" viewBox="0 0 14 14"><path d="M13.25 11.5854V7.6687H11.4167V11.3354H2.58333V2.50203H6.25V0.668701H2.33333C1.46655 0.668701 0.75 1.38525 0.75 2.25203V11.5854C0.75 12.4521 1.46655 13.1687 2.33333 13.1687H11.6667C12.5334 13.1687 13.25 12.4521 13.25 11.5854ZM13.25 0.668701H8.08333V2.50203H10.1204L4.17509 8.44735L5.47135 9.74361L11.4167 3.7983V5.83537H13.25V0.668701Z"/></svg>

<svg xmlns="http://www.w3.org/2000/svg" viewBox="0 0 14 14"><path d="M13.25 11.585V7.67h-1.833v3.666H2.583V2.502H6.25V.669H2.333C1.467.669.75 1.385.75 2.252v9.333c0 .867.717 1.584 1.583 1.584h9.334c.866 0 1.583-.717 1.583-1.584m0-10.916H8.083v1.833h2.037L4.175 8.447l1.296 1.297 5.946-5.946v2.037h1.833z"/></svg>
